; generated by PrusaSlicer 2.2.0+ on 2022-01-24 at 03:33:26 UTC

; 

; external perimeters extrusion width = 0.45mm
; perimeters extrusion width = 0.45mm
; infill extrusion width = 0.45mm
; solid infill extrusion width = 0.45mm
; top infill extrusion width = 0.40mm
; first layer extrusion width = 0.42mm

M73 P0 R87
M73 Q0 S92
M201 X1000 Y1000 Z200 E5000 ; sets maximum accelerations, mm/sec^2
M203 X200 Y200 Z12 E120 ; sets maximum feedrates, mm/sec
M204 P1250 R1250 T1250 ; sets acceleration (P, T) and retract acceleration (R), mm/sec^2
M205 X8.00 Y8.00 Z0.40 E4.50 ; sets the jerk limits, mm/sec
M205 S0 T0 ; sets the minimum extruding and travel feed rate, mm/sec
M107
M862.3 P "MK3S" ; printer model check
M862.1 P0.4 ; nozzle diameter check
M115 U3.9.3 ; tell printer latest fw version
G90 ; use absolute coordinates
M83 ; extruder relative mode
M104 S215 ; set extruder temp
M140 S60 ; set bed temp
M190 S60 ; wait for bed temp
M109 S215 ; wait for extruder temp
G28 W ; home all without mesh bed level
G80 ; mesh bed leveling
G1 Y-3.0 F1000.0 ; go outside print area
G92 E0.0
G1 X60.0 E9.0 F1000.0 ; intro line
M73 Q0 S92
M73 P0 R87
G1 X100.0 E12.5 F1000.0 ; intro line
G92 E0.0
M221 S95

; Don't change E values below. Excessive value can damage the printer.

M907 E538 ; set extruder motor current
G21 ; set units to millimeters
G90 ; use absolute coordinates
M83 ; use relative distances for extrusion
M900 K0.05 ; Filament gcode LA 1.5
M900 K30 ; Filament gcode LA 1.0
;BEFORE_LAYER_CHANGE
G92 E0.0
;0.2


G1 E-0.80000 F2100.00000
G1 Z0.400 F10800.000
;AFTER_LAYER_CHANGE
;0.2
G1 X99.229 Y83.321
G1 Z0.200
G1 E0.80000 F2100.00000
M204 S1000
G1 F1200.000
G1 X100.957 Y81.419 E0.08060
G1 X103.679 Y78.932 E0.11561
G1 X105.734 Y77.379 E0.08076
G1 X108.847 Y75.449 E0.11485
G1 X112.190 Y73.854 E0.11612
G1 X114.550 Y72.985 E0.07887
G1 X118.047 Y72.049 E0.11349
G1 X121.442 Y71.511 E0.10779
G1 X125.004 Y71.323 E0.11182
G1 X128.089 Y71.465 E0.09683
G1 X131.585 Y71.973 E0.11077
G1 X134.958 Y72.829 E0.10912
G1 X137.275 Y73.640 E0.07698
G1 X140.551 Y75.129 E0.11283
G1 X143.698 Y76.991 E0.11464
G1 X146.679 Y79.229 E0.11686
G1 X148.581 Y80.957 E0.08060
G1 X151.068 Y83.679 E0.11561
G1 X152.621 Y85.734 E0.08076
G1 X154.551 Y88.847 E0.11485
G1 X156.146 Y92.190 E0.11612
G1 X157.015 Y94.550 E0.07887
G1 X157.950 Y98.045 E0.11342
G1 X158.489 Y101.442 E0.10786
G1 X158.677 Y105.000 E0.11171
G1 X158.535 Y108.088 E0.09693
G1 X158.027 Y111.585 E0.11079
G1 X157.171 Y114.958 E0.10912
G1 X156.360 Y117.275 E0.07698
G1 X154.871 Y120.551 E0.11283
G1 X153.009 Y123.698 E0.11464
G1 X150.771 Y126.679 E0.11686
G1 X149.043 Y128.581 E0.08060
G1 X146.321 Y131.068 E0.11561
G1 X144.266 Y132.621 E0.08076
G1 X141.153 Y134.551 E0.11485
G1 X137.810 Y136.146 E0.11612
G1 X135.450 Y137.015 E0.07887
G1 X131.953 Y137.951 E0.11349
G1 X128.558 Y138.489 E0.10779
G1 X125.002 Y138.677 E0.11165
G1 X121.912 Y138.535 E0.09699
G1 X118.415 Y138.027 E0.11079
G1 X115.042 Y137.171 E0.10912
G1 X112.725 Y136.360 E0.07698
G1 X109.449 Y134.871 E0.11283
G1 X106.302 Y133.009 E0.11464
G1 X103.321 Y130.771 E0.11686
G1 X101.419 Y129.043 E0.08060
G1 X98.932 Y126.321 E0.11561
G1 X97.379 Y124.266 E0.08076
G1 X95.449 Y121.153 E0.11485
G1 X93.854 Y117.810 E0.11612
G1 X92.985 Y115.450 E0.07887
G1 X92.050 Y111.955 E0.11342
G1 X91.511 Y108.558 E0.10786
G1 X91.323 Y105.000 E0.11171
G1 X91.465 Y101.912 E0.09693
G1 X91.973 Y98.415 E0.11079
G1 X92.829 Y95.042 E0.10912
G1 X93.640 Y92.725 E0.07698
G1 X95.129 Y89.449 E0.11283
G1 X96.991 Y86.302 E0.11464
G1 X99.193 Y83.369 E0.11498
; printing object kr10_to_ur10_adapter.stl id:0 copy 0
G1 F8640.000
G1 X100.957 Y81.419 E-0.60733
G1 X101.445 Y80.973 E-0.15267
G1 E-0.04000 F2100.00000
G1 Z0.600 F10800.000
G1 X122.148 Y116.476
G1 Z0.200
G1 E0.80000 F2100.00000
G1 F1200.000
G1 X122.582 Y116.217 E0.01584
G1 X123.038 Y116.001 E0.01583
G1 X123.512 Y115.832 E0.01577
G1 X123.994 Y115.712 E0.01558
G1 X124.494 Y115.637 E0.01586
G1 X124.983 Y115.612 E0.01534
G1 X125.505 Y115.637 E0.01638
G1 X126.006 Y115.712 E0.01589
G1 X126.486 Y115.832 E0.01553
G1 X126.962 Y116.001 E0.01582
G1 X127.419 Y116.217 E0.01584
G1 X127.852 Y116.476 E0.01584
G1 X128.258 Y116.777 E0.01586
G1 X128.633 Y117.117 E0.01585
G1 X128.973 Y117.492 E0.01587
G1 X129.274 Y117.898 E0.01585
G1 X129.533 Y118.332 E0.01584
G1 X129.749 Y118.788 E0.01583
G1 X129.918 Y119.262 E0.01577
G1 X130.038 Y119.744 E0.01558
G1 X130.113 Y120.245 E0.01587
G1 X130.138 Y120.751 E0.01590
G1 X130.113 Y121.255 E0.01582
G1 X130.038 Y121.756 E0.01587
G1 X129.918 Y122.236 E0.01553
G1 X129.749 Y122.712 E0.01582
G1 X129.533 Y123.169 E0.01584
G1 X129.274 Y123.602 E0.01584
G1 X128.973 Y124.008 E0.01586
G1 X128.633 Y124.383 E0.01585
G1 X128.258 Y124.723 E0.01587
G1 X127.852 Y125.024 E0.01585
G1 X127.418 Y125.283 E0.01584
G1 X126.962 Y125.499 E0.01583
G1 X126.488 Y125.668 E0.01577
G1 X126.006 Y125.788 E0.01558
G1 X125.505 Y125.863 E0.01588
G1 X125.000 Y125.888 E0.01586
G1 X124.495 Y125.863 E0.01585
G1 X123.994 Y125.788 E0.01588
G1 X123.513 Y125.668 E0.01553
G1 X123.038 Y125.499 E0.01582
G1 X122.581 Y125.283 E0.01584
G1 X122.148 Y125.024 E0.01584
G1 X121.742 Y124.723 E0.01586
G1 X121.367 Y124.383 E0.01585
G1 X121.027 Y124.008 E0.01588
G1 X120.726 Y123.602 E0.01585
G1 X120.467 Y123.168 E0.01584
G1 X120.251 Y122.712 E0.01583
G1 X120.082 Y122.238 E0.01577
G1 X119.962 Y121.756 E0.01558
G1 X119.887 Y121.255 E0.01587
G1 X119.862 Y120.749 E0.01590
G1 X119.887 Y120.245 E0.01582
G1 X119.962 Y119.744 E0.01587
G1 X120.082 Y119.264 E0.01553
G1 X120.251 Y118.788 E0.01582
G1 X120.467 Y118.331 E0.01584
G1 X120.726 Y117.898 E0.01584
G1 X121.027 Y117.492 E0.01586
G1 X121.367 Y117.117 E0.01585
G1 X121.742 Y116.777 E0.01587
G1 X122.100 Y116.512 E0.01397
G1 X122.324 Y116.815 F10800.000
G1 F1200.000
G1 X122.759 Y116.550 E0.01597
G1 X123.182 Y116.350 E0.01467
G1 X123.621 Y116.194 E0.01461
G1 X124.068 Y116.082 E0.01443
G1 X124.532 Y116.013 E0.01471
G1 X124.983 Y115.990 E0.01418
G1 X125.468 Y116.013 E0.01520
G1 X125.932 Y116.082 E0.01472
G1 X126.377 Y116.193 E0.01438
G1 X126.818 Y116.350 E0.01466
G1 X127.241 Y116.550 E0.01467
G1 X127.642 Y116.790 E0.01468
G1 X128.019 Y117.069 E0.01470
G1 X128.366 Y117.384 E0.01468
G1 X128.681 Y117.731 E0.01471
G1 X128.960 Y118.108 E0.01469
G1 X129.200 Y118.509 E0.01468
G1 X129.400 Y118.932 E0.01467
G1 X129.556 Y119.371 E0.01461
G1 X129.668 Y119.818 E0.01443
G1 X129.737 Y120.282 E0.01472
G1 X129.760 Y120.751 E0.01473
G1 X129.737 Y121.218 E0.01465
G1 X129.668 Y121.682 E0.01472
G1 X129.557 Y122.127 E0.01438
G1 X129.400 Y122.568 E0.01466
G1 X129.200 Y122.991 E0.01467
G1 X128.960 Y123.392 E0.01468
G1 X128.681 Y123.769 E0.01470
G1 X128.366 Y124.116 E0.01468
G1 X128.019 Y124.431 E0.01471
G1 X127.642 Y124.710 E0.01469
G1 X127.241 Y124.950 E0.01468
G1 X126.818 Y125.150 E0.01466
G1 X126.379 Y125.306 E0.01461
G1 X125.932 Y125.418 E0.01443
G1 X125.468 Y125.487 E0.01472
G1 X125.000 Y125.510 E0.01469
G1 X124.532 Y125.487 E0.01469
G1 X124.068 Y125.418 E0.01472
G1 X123.623 Y125.307 E0.01438
G1 X123.182 Y125.150 E0.01466
G1 X122.759 Y124.950 E0.01467
G1 X122.358 Y124.710 E0.01468
G1 X121.981 Y124.431 E0.01470
G1 X121.634 Y124.116 E0.01468
G1 X121.319 Y123.769 E0.01471
G1 X121.040 Y123.392 E0.01469
G1 X120.800 Y122.991 E0.01468
G1 X120.600 Y122.568 E0.01467
G1 X120.444 Y122.129 E0.01461
G1 X120.332 Y121.682 E0.01443
G1 X120.263 Y121.218 E0.01472
G1 X120.240 Y120.749 E0.01473
G1 X120.263 Y120.282 E0.01465
G1 X120.332 Y119.818 E0.01472
G1 X120.443 Y119.373 E0.01438
G1 X120.600 Y118.932 E0.01466
G1 X120.800 Y118.509 E0.01467
G1 X121.040 Y118.108 E0.01468
G1 X121.319 Y117.731 E0.01470
G1 X121.634 Y117.384 E0.01468
G1 X121.981 Y117.069 E0.01471
G1 X122.276 Y116.851 E0.01150
G1 X122.296 Y116.416 F10800.000
G1 F8640.000
G1 X122.759 Y116.550 E-0.13143
G1 X123.182 Y116.350 E-0.10800
G1 X123.621 Y116.194 E-0.10759
G1 X124.068 Y116.082 E-0.10625
G1 X124.532 Y116.013 E-0.10835
G1 X124.983 Y115.990 E-0.10442
G1 X125.390 Y116.009 E-0.09396
G1 E-0.04000 F2100.00000
G1 Z0.600 F10800.000
G1 X110.430 Y119.951
G1 Z0.200
G1 E0.80000 F2100.00000
G1 F1200.000
G1 X110.749 Y120.364 E0.01636
G1 X110.949 Y120.705 E0.01238
G1 X111.111 Y121.060 E0.01224
G1 X111.235 Y121.422 E0.01201
G1 X111.321 Y121.785 E0.01171
G1 X111.371 Y122.145 E0.01138
G1 X111.388 Y122.501 E0.01119
G1 X111.373 Y122.843 E0.01074
G1 X111.324 Y123.204 E0.01140
G1 X111.238 Y123.567 E0.01171
G1 X111.116 Y123.928 E0.01193
G1 X110.957 Y124.280 E0.01212
G1 X110.757 Y124.623 E0.01244
G1 X110.523 Y124.945 E0.01251
G1 X110.255 Y125.244 E0.01257
G1 X109.958 Y125.513 E0.01257
G1 X109.636 Y125.749 E0.01251
G1 X109.295 Y125.949 E0.01238
G1 X108.940 Y126.111 E0.01224
G1 X108.578 Y126.235 E0.01201
G1 X108.215 Y126.321 E0.01171
G1 X107.855 Y126.371 E0.01138
G1 X107.501 Y126.388 E0.01112
G1 X107.157 Y126.373 E0.01081
G1 X106.794 Y126.323 E0.01146
G1 X106.433 Y126.238 E0.01164
G1 X106.074 Y126.117 E0.01187
G1 X105.718 Y125.956 E0.01225
G1 X105.377 Y125.757 E0.01237
G1 X105.055 Y125.523 E0.01250
G1 X104.756 Y125.255 E0.01257
G1 X104.487 Y124.958 E0.01257
G1 X104.251 Y124.636 E0.01251
G1 X104.051 Y124.295 E0.01238
G1 X103.889 Y123.940 E0.01224
G1 X103.765 Y123.578 E0.01201
G1 X103.679 Y123.215 E0.01171
G1 X103.629 Y122.855 E0.01138
G1 X103.612 Y122.501 E0.01113
G1 X103.627 Y122.157 E0.01081
G1 X103.676 Y121.796 E0.01140
G1 X103.762 Y121.433 E0.01171
G1 X103.884 Y121.072 E0.01193
G1 X104.043 Y120.720 E0.01212
G1 X104.243 Y120.377 E0.01244
G1 X104.477 Y120.055 E0.01251
G1 X104.745 Y119.756 E0.01257
G1 X105.042 Y119.487 E0.01257
G1 X105.364 Y119.251 E0.01251
G1 X105.705 Y119.051 E0.01238
G1 X106.060 Y118.889 E0.01224
G1 X106.422 Y118.765 E0.01201
G1 X106.785 Y118.679 E0.01171
G1 X107.144 Y118.629 E0.01136
G1 X107.468 Y118.613 E0.01018
G1 X107.842 Y118.627 E0.01171
G1 X108.204 Y118.676 E0.01146
G1 X108.567 Y118.762 E0.01171
G1 X108.928 Y118.884 E0.01193
G1 X109.280 Y119.043 E0.01212
G1 X109.623 Y119.243 E0.01244
G1 X110.051 Y119.572 E0.01693
G1 X109.891 Y119.396 E0.00744
G1 X109.591 Y118.991 E0.01581
G1 X109.331 Y118.557 E0.01588
G1 X109.116 Y118.103 E0.01574
G1 X108.946 Y117.628 E0.01582
G1 X108.824 Y117.139 E0.01580
G1 X108.750 Y116.641 E0.01580
G1 X108.725 Y116.137 E0.01582
G1 X108.750 Y115.633 E0.01582
G1 X108.824 Y115.135 E0.01580
G1 X108.946 Y114.646 E0.01580
G1 X109.116 Y114.171 E0.01582
G1 X109.331 Y113.717 E0.01574
G1 X109.591 Y113.283 E0.01588
G1 X109.891 Y112.878 E0.01580
G1 X110.230 Y112.504 E0.01582
G1 X110.604 Y112.165 E0.01582
G1 X111.009 Y111.865 E0.01580
G1 X111.443 Y111.605 E0.01588
G1 X111.897 Y111.390 E0.01574
G1 X112.372 Y111.220 E0.01582
G1 X112.861 Y111.098 E0.01580
G1 X113.359 Y111.024 E0.01580
G1 X113.805 Y111.002 E0.01400
G1 X114.364 Y111.023 E0.01752
G1 X114.865 Y111.098 E0.01590
G1 X115.354 Y111.220 E0.01580
G1 X115.829 Y111.390 E0.01582
G1 X116.283 Y111.605 E0.01574
G1 X116.717 Y111.865 E0.01588
G1 X117.122 Y112.165 E0.01580
G1 X117.496 Y112.504 E0.01582
G1 X117.835 Y112.878 E0.01582
G1 X118.135 Y113.283 E0.01580
G1 X118.395 Y113.717 E0.01588
G1 X118.610 Y114.171 E0.01574
G1 X118.780 Y114.646 E0.01582
G1 X118.902 Y115.135 E0.01580
G1 X118.976 Y115.633 E0.01580
G1 X119.001 Y116.137 E0.01582
G1 X118.976 Y116.641 E0.01582
G1 X118.902 Y117.139 E0.01580
G1 X118.780 Y117.628 E0.01580
G1 X118.610 Y118.103 E0.01582
G1 X118.395 Y118.557 E0.01574
G1 X118.135 Y118.991 E0.01588
G1 X117.835 Y119.396 E0.01580
G1 X117.496 Y119.770 E0.01582
G1 X117.122 Y120.109 E0.01582
G1 X116.717 Y120.409 E0.01580
G1 X116.283 Y120.669 E0.01588
G1 X115.829 Y120.884 E0.01574
G1 X115.354 Y121.054 E0.01582
G1 X114.865 Y121.176 E0.01580
G1 X114.367 Y121.250 E0.01580
G1 X113.863 Y121.275 E0.01582
G1 X113.359 Y121.250 E0.01582
G1 X112.861 Y121.176 E0.01580
G1 X112.372 Y121.054 E0.01580
G1 X111.897 Y120.884 E0.01582
G1 X111.443 Y120.669 E0.01574
G1 X111.009 Y120.409 E0.01588
G1 X110.604 Y120.109 E0.01581
G1 X110.474 Y119.991 E0.00547
G1 X110.728 Y119.712 F10800.000
G1 F1200.000
G1 X110.497 Y119.503 E0.00976
G1 X110.183 Y119.157 E0.01465
G1 X109.905 Y118.782 E0.01465
G1 X109.664 Y118.379 E0.01472
G1 X109.465 Y117.959 E0.01457
G1 X109.308 Y117.519 E0.01465
G1 X109.194 Y117.066 E0.01464
G1 X109.126 Y116.604 E0.01464
G1 X109.102 Y116.137 E0.01465
G1 X109.126 Y115.670 E0.01465
G1 X109.194 Y115.208 E0.01464
G1 X109.308 Y114.755 E0.01464
G1 X109.465 Y114.315 E0.01465
G1 X109.664 Y113.895 E0.01457
G1 X109.905 Y113.492 E0.01472
G1 X110.183 Y113.117 E0.01464
G1 X110.497 Y112.771 E0.01465
G1 X110.843 Y112.457 E0.01465
G1 X111.218 Y112.179 E0.01464
G1 X111.621 Y111.938 E0.01472
G1 X112.041 Y111.739 E0.01458
G1 X112.481 Y111.581 E0.01465
G1 X112.934 Y111.468 E0.01464
G1 X113.396 Y111.399 E0.01464
G1 X113.807 Y111.379 E0.01290
G1 X114.329 Y111.399 E0.01636
G1 X114.792 Y111.468 E0.01468
G1 X115.245 Y111.581 E0.01464
G1 X115.685 Y111.739 E0.01465
G1 X116.105 Y111.938 E0.01457
G1 X116.508 Y112.179 E0.01472
G1 X116.883 Y112.457 E0.01464
G1 X117.229 Y112.771 E0.01465
G1 X117.543 Y113.117 E0.01465
G1 X117.821 Y113.492 E0.01464
G1 X118.062 Y113.895 E0.01472
G1 X118.261 Y114.315 E0.01458
G1 X118.419 Y114.755 E0.01465
G1 X118.532 Y115.208 E0.01464
G1 X118.601 Y115.670 E0.01464
G1 X118.624 Y116.137 E0.01465
G1 X118.601 Y116.604 E0.01465
G1 X118.532 Y117.066 E0.01464
G1 X118.419 Y117.519 E0.01464
G1 X118.261 Y117.959 E0.01465
G1 X118.062 Y118.379 E0.01457
G1 X117.821 Y118.782 E0.01472
G1 X117.543 Y119.157 E0.01464
G1 X117.229 Y119.503 E0.01465
G1 X116.883 Y119.817 E0.01465
G1 X116.508 Y120.095 E0.01464
G1 X116.105 Y120.336 E0.01472
G1 X115.685 Y120.535 E0.01457
G1 X115.245 Y120.692 E0.01465
G1 X114.792 Y120.806 E0.01464
G1 X114.330 Y120.874 E0.01464
G1 X113.863 Y120.898 E0.01465
G1 X113.396 Y120.874 E0.01465
G1 X112.934 Y120.806 E0.01464
G1 X112.481 Y120.692 E0.01464
G1 X112.041 Y120.535 E0.01465
G1 X111.621 Y120.336 E0.01457
G1 X111.218 Y120.095 E0.01472
G1 X110.772 Y119.752 E0.01764
G1 X110.436 Y119.820 F10800.000
G1 X110.206 Y120.265
G1 F1200.000
G1 X110.433 Y120.572 E0.01197
G1 X110.614 Y120.879 E0.01118
G1 X110.761 Y121.200 E0.01105
G1 X110.873 Y121.527 E0.01084
G1 X110.950 Y121.855 E0.01057
G1 X110.996 Y122.179 E0.01028
G1 X111.010 Y122.502 E0.01011
G1 X110.997 Y122.810 E0.00967
G1 X110.952 Y123.135 E0.01030
G1 X110.875 Y123.464 E0.01058
G1 X110.765 Y123.789 E0.01077
G1 X110.621 Y124.107 E0.01094
G1 X110.441 Y124.416 E0.01123
G1 X110.229 Y124.708 E0.01129
G1 X109.987 Y124.977 E0.01135
G1 X109.719 Y125.220 E0.01135
G1 X109.428 Y125.433 E0.01129
G1 X109.121 Y125.614 E0.01118
G1 X108.800 Y125.761 E0.01105
G1 X108.473 Y125.873 E0.01084
G1 X108.145 Y125.950 E0.01057
G1 X107.821 Y125.996 E0.01028
G1 X107.501 Y126.010 E0.01005
G1 X107.190 Y125.997 E0.00973
G1 X106.863 Y125.952 E0.01036
G1 X106.536 Y125.875 E0.01051
G1 X106.213 Y125.766 E0.01071
G1 X105.892 Y125.620 E0.01106
G1 X105.584 Y125.441 E0.01117
G1 X105.292 Y125.229 E0.01129
G1 X105.023 Y124.987 E0.01135
G1 X104.780 Y124.719 E0.01135
G1 X104.567 Y124.428 E0.01129
G1 X104.386 Y124.121 E0.01118
G1 X104.239 Y123.800 E0.01105
G1 X104.127 Y123.473 E0.01084
G1 X104.050 Y123.145 E0.01057
G1 X104.004 Y122.821 E0.01027
G1 X103.990 Y122.501 E0.01005
G1 X104.003 Y122.190 E0.00973
G1 X104.048 Y121.865 E0.01030
G1 X104.125 Y121.536 E0.01058
G1 X104.235 Y121.211 E0.01077
G1 X104.379 Y120.893 E0.01094
G1 X104.559 Y120.584 E0.01123
G1 X104.771 Y120.292 E0.01129
G1 X105.013 Y120.023 E0.01135
G1 X105.281 Y119.780 E0.01135
G1 X105.572 Y119.567 E0.01129
G1 X105.879 Y119.386 E0.01118
G1 X106.200 Y119.239 E0.01105
G1 X106.527 Y119.127 E0.01084
G1 X106.855 Y119.050 E0.01057
G1 X107.179 Y119.004 E0.01027
G1 X107.470 Y118.990 E0.00914
G1 X107.809 Y119.003 E0.01063
G1 X108.135 Y119.048 E0.01032
G1 X108.464 Y119.125 E0.01058
G1 X108.789 Y119.235 E0.01077
G1 X109.107 Y119.379 E0.01094
G1 X109.416 Y119.559 E0.01123
G1 X109.708 Y119.771 E0.01129
G1 X109.977 Y120.013 E0.01135
G1 X110.165 Y120.221 E0.00880
G1 X110.582 Y120.202 F10800.000
G1 F8640.000
G1 X110.433 Y120.572 E-0.10192
G1 X110.614 Y120.879 E-0.08233
G1 X110.761 Y121.200 E-0.08139
G1 X110.873 Y121.527 E-0.07984
G1 X110.950 Y121.855 E-0.07787
